public/svg/atomIcon.svg

<svg xmlns="http://www.w3.org/2000/svg" width="56" height="56" viewBox="0 0 56 56" fill="none">
<path d="M28 28V28.0233" stroke="#1B5BF7" stroke-width="3.5" stroke-linecap="round" stroke-linejoin="round"/>
<path d="M44.4991 11.5008C42.7487 9.75045 39.3318 9.8101 34.9999 11.6666C30.668 13.5231 25.7761 17.0244 21.4003 21.4003C17.0244 25.7761 13.5231 30.6681 11.6666 34.9999C9.81007 39.3318 9.75042 42.7488 11.5008 44.4991C13.2511 46.2494 16.6681 46.1898 20.9999 44.3333C25.3318 42.4768 30.2237 38.9755 34.5996 34.5996C36.7663 32.4329 38.7411 30.1167 40.4112 27.7833C42.0813 25.4498 43.414 23.1449 44.3333 20.9999C45.2525 18.855 45.7403 16.9122 45.7687 15.2823C45.7972 13.6524 45.3658 12.3675 44.4991 11.5008" stroke="#1B5BF7" stroke-width="3.5" stroke-linecap="round" stroke-linejoin="round"/>
<path d="M11.501 11.5009C9.75069 13.2513 9.81034 16.6682 11.6669 21.0001C13.5234 25.332 17.0247 30.2239 21.4005 34.5997C25.7764 38.9756 30.6683 42.4769 35.0002 44.3334C39.3321 46.1899 42.749 46.2496 44.4993 44.4992C46.2497 42.7489 46.19 39.3319 44.3335 35.0001C42.477 30.6682 38.9757 25.7763 34.5999 21.4004C32.4332 19.2337 30.117 17.2589 27.7835 15.5888C25.4501 13.9187 23.1451 12.586 21.0002 11.6667C18.8553 10.7475 16.9124 10.2597 15.2825 10.2313C13.6527 10.2028 12.3677 10.6342 11.501 11.5009" stroke="#1B5BF7" stroke-width="3.5" stroke-linecap="round" stroke-linejoin="round"/>
</svg>

<svg xmlns="http://www.w3.org/2000/svg" width="56" height="56" fill="none" stroke="#1b5bf7" stroke-width="3.5" stroke-linecap="round" stroke-linejoin="round" xmlns:v="https://vecta.io/nano"><path d="M28 28v.023"/><path d="M44.499 11.501c-1.75-1.75-5.167-1.691-9.499.166s-9.224 5.358-13.6 9.734-7.877 9.268-9.734 13.6-1.916 7.749-.166 9.499 5.167 1.691 9.499-.166 9.224-5.358 13.6-9.734c2.167-2.167 4.142-4.483 5.812-6.816s3.003-4.638 3.922-6.783 1.407-4.088 1.435-5.718-.403-2.915-1.27-3.781"/><path d="M11.501 11.501c-1.75 1.75-1.691 5.167.166 9.499s5.358 9.224 9.734 13.6 9.268 7.877 13.6 9.734 7.749 1.916 9.499.166 1.691-5.167-.166-9.499-5.358-9.224-9.734-13.6c-2.167-2.167-4.483-4.142-6.816-5.812S23.145 12.586 21 11.667s-4.088-1.407-5.718-1.435-2.915.403-3.782 1.27"/></svg>
